Unicodia/Resources/Scripts/0B00.svg

<?xml version="1.0" encoding="UTF-8" standalone="no"?>
<!-- Created with Inkscape (http://www.inkscape.org/) -->

<svg
   width="16"
   height="16"
   viewBox="0 0 16 16"
   version="1.1"
   id="svg5"
   inkscape:version="1.2.1 (9c6d41e410, 2022-07-14)"
   sodipodi:docname="0B00.svg"
   inkscape:export-filename="..\0000.png"
   inkscape:export-xdpi="96"
   inkscape:export-ydpi="96"
   xmlns:inkscape="http://www.inkscape.org/namespaces/inkscape"
   xmlns:sodipodi="http://sodipodi.sourceforge.net/DTD/sodipodi-0.dtd"
   xmlns="http://www.w3.org/2000/svg"
   xmlns:svg="http://www.w3.org/2000/svg">
  <sodipodi:namedview
     id="namedview7"
     pagecolor="#ffffff"
     bordercolor="#666666"
     borderopacity="1.0"
     inkscape:pageshadow="2"
     inkscape:pageopacity="0"
     inkscape:pagecheckerboard="0"
     inkscape:document-units="px"
     showgrid="true"
     width="16mm"
     units="px"
     inkscape:zoom="22.627417"
     inkscape:cx="12.352272"
     inkscape:cy="5.08233"
     inkscape:window-width="1680"
     inkscape:window-height="998"
     inkscape:window-x="-8"
     inkscape:window-y="-8"
     inkscape:window-maximized="1"
     inkscape:current-layer="layer1"
     showguides="true"
     inkscape:guide-bbox="true"
     inkscape:snap-bbox="true"
     inkscape:bbox-paths="true"
     inkscape:bbox-nodes="true"
     inkscape:snap-global="true"
     inkscape:showpageshadow="2"
     inkscape:deskcolor="#ffffff">
    <inkscape:grid
       type="xygrid"
       id="grid828"
       originx="0"
       originy="0" />
  </sodipodi:namedview>
  <defs
     id="defs2" />
  <g
     inkscape:label="Layer 1"
     inkscape:groupmode="layer"
     id="layer1">
    <rect
       style="opacity:1;fill:#ffff83;stroke:none;stroke-width:4.4376;stroke-linejoin:bevel;stop-color:#000000;fill-opacity:1"
       id="rect691"
       width="16"
       height="16"
       x="0"
       y="0" />
    <path
       d="m 7.9796509,11.094955 q 0,1.568248 0.6104652,3.489614 Q 7.5116277,15 6.0872091,15 4.6627906,15 3.6453487,14.158753 2.6279069,13.317507 2.6279069,11.531156 q 0,-0.727003 0.1831396,-1.391692 Q 1,8.4917386 1,6.2535908 1,4.0154596 2.8720929,2.5338272 4.8101202,1 7.5523254,1 10.716569,1 12.858285,2.4718969 15,3.9437937 15,6.6290879 15,8.3687027 14.002907,9.6409582 L 12.558139,8.9970411 q 0.813954,-1.0057756 0.813954,-2.2061638 0,-2.1372232 -1.666537,-3.2058971 Q 10.039037,2.516323 7.8168521,2.516323 q -2.4980842,0 -3.9273255,1.1887229 -1.3430232,1.1170175 -1.3430232,2.7993984 0,1.2462911 0.8343023,2.3264101 0.7678898,-1.2149302 2.2790697,-2.243324 L 6.2703405,7.4807057 Q 4.093015,9.3293711 4.093015,11.489609 q 0,1.080119 0.6104651,1.661721 0.6104651,0.581603 1.6279069,0.581603 0.3662791,0 0.6918605,-0.08309 -0.4273256,-1.352217 -0.4273256,-2.753264 0,-1.4010471 0.681686,-2.4188435 0.681686,-1.0177961 2.2281976,-1.0178045 1.2005815,0 1.8619185,0.6543029 0.661337,0.6543028 0.661337,1.9836811 v 4.735905 h -1.587209 v -4.52819 q 0,-0.81009 -0.305232,-1.1943632 -0.3052331,-0.384273 -0.8343028,-0.384273 -1.3226744,0 -1.3226744,2.3679542 z"
       id="path585"
       style="fill:#f57900;stroke-width:0.0205591" />
  </g>
</svg>

<svg height="16" viewBox="0 0 16 16" width="16" xmlns="http://www.w3.org/2000/svg"><path d="m0 0h16v16h-16z" fill="#ffff83"/><path d="m7.98 11.09q0 1.57.61 3.49-1.08.42-2.5.42-1.43 0-2.44-.84-1.02-.84-1.02-2.63 0-.73.18-1.39-1.81-1.65-1.81-3.89 0-2.23 1.87-3.72 1.94-1.53 4.68-1.53 3.17 0 5.31 1.47 2.14 1.47 2.14 4.16 0 1.74-1 3.01l-1.44-.64q.81-1.01.81-2.21 0-2.14-1.67-3.21-1.66-1.06-3.88-1.06-2.5 0-3.93 1.19-1.34 1.12-1.34 2.8 0 1.25.83 2.33.77-1.21 2.28-2.24l.61.88q-2.18 1.85-2.18 4.01 0 1.08.61 1.66.61.58 1.63.58.37 0 .69-.08-.43-1.35-.43-2.75 0-1.4.68-2.42.68-1.02 2.23-1.02 1.2 0 1.86.65.66.65.66 1.98v4.74h-1.59v-4.53q0-.81-.31-1.19-.31-.38-.83-.38-1.32 0-1.32 2.37z" fill="#f57900" stroke-width=".02"/></svg>
